X:139
T: MUSS WANDERN MUSS WANDERN
N: K2228
O: Europa, Mitteleuropa, Deutschland, Ostpreussen
R: Kinder - Lied, Reigen, Tanz - Spiel, Brautwerbung
M: 2/4
L: 1/16
K: D
A2 | A4F2A2 | A4F2
A2 | d2c2B2A2 | A2G2F4 |
D2D2D2DD | D2DDD4 |
D2D2D2D2 | D4z4 |
D2D2D2D2 | D4z4 |
D2D2D2D2 | D4z4 |
D2F2A2A2 | d2B2A4 | d2B2A2
A2 | G2G2F2F2 | E2E2D2

